X:13
T:Sugar in the Gourd [6]
L:1/8
M:C|
S:Bruce Molsky, from Marcus Martin's home recording
Z:AK/Fiddler's Companion
K:G
g2 ga gded|e g2 a [d3g3]A|[G,2G2][G,2G2] AGE(G|G)AGE D3z|g2 ga gded|
e g2 a [d3g3]A|[G,2G2] AB (3dBA GB|dBAF G2 G2:|
|:[G,E][G,2G2]A BAGA|B d2 d e2g2|[G,2G2][G,2G2] AGE(G|G)AGE D2D2|
EFGA BAGA|B d2 d e2g2|[G,2G2] AB (3dBA GB|dBAF G2 G2:|
Variation: 1st measure
gaba (3bag ed|


